!!!OTL: WER WILL UNTER DIE SOLDATEN
!!!ARE: Europa, Mitteleuropa, Deutschland
!!!SCT: F0619
!!!YEM: Copyright 1995, estate of Helmut Schaffrath.
**kern
*ICvox
*Ivox
*M3/4
*k[b-]
*F:
{8c
8c
=1
4.f
8e
8f
8g
=2
8.a
16g
4f}
{8f
8g
=3
8.a
16b-
4cc
4dd
=4
2cc
4r}
=5
{8.cc
16b-
8a
8a
8a
8a
=6
8.cc
16b-
4g
4r}
=7
{8.g
16g
8a
8a
8b-
8b-
=8
8dd
8cc}
{8ff
8r
8cc
8r
=9
8a
16cc
16cc
4cc}
{8ff
8cc
=10
16cc
16b-
16a
16b-
4cc
4b-
=11
2a}
==
!!!AGN: Soldaten - Lied
!!!ONB: ESAC (Essen Associative Code) Database: FINK
!!!AMT: simple triple
!!!AIN: vox
!!!EED: Helmut Schaffrath
!!!EEV: 1.0
*-
